X: 17989
T: Hughie McGinley's
R: strathspey
M: 4/4
K: Adorian
af|:e2e>^d e2=dB|G2B<G D>GB>d|e2 (3ee^d e2a2|1 g>ed>B A>ag>a:|2 g>ed>B A2A2||
e<a a>g e<a a>f|g>fg>d B<GB>d|e<aa>g e<aa>f|(3gge (3dcB A2A2|
e<aa>g e<aa>f|g>fg>d B<GB>d|e2(3ee^d e2a2|g>ed>B A>ag>a||

